X:1
P: Larry O'Gaff
C: from R. Miller/New England Fiddlers Repertoire
C: Arr. T. Traub 12-27-1997
R: Jig
M: 6/8
K: G
L: 1/8
|: d|"G"g2 G BAG|ded dBG|"C"cec "G"BdB|"Am"ABc "D"def|"G"g2 G BAG|ded dBG|"C"cec "G"BdB|"D"AGA "G"G2 :|
|: B|"G"d2 g gfg |"G"gfg "D"afd|"D"d2 a aga|"D"aga "Em"b2 a|"G"gba "C"gfe|"G"dge dBG|"C"cec "G"BdB|"D"AGA "G"G2 :|
